!!!COM: Scriabin, Alexander
!!!OTL@@FR: Caresse dansée
!!!OTL@@EN:
!!!OPR@@FR: 2 Morceaux
!!!OPR@@EN:
!!!OPS: 57
!!!ONM: 2
!!!ODT: 1908
!!!AGN: Dance
**kern	**kern	**dynam
*staff2	*staff1	*staff1/2
*Ipiano	*Ipiano	*
*clefF4	*clefG2	*
*k[]	*k[]	*
*C:	*C:	*
*M3/8	*M3/8	*
=1	=1	=1
*	*^	*
4.c 4.f#X	[4.ee	16bLL	.
.	.	16a#XJJ	.
.	.	8.b	.
.	.	16b-X	.
=2	=2	=2	=2
4.A-X 4.g-X	16eeLL]	4.b-X	.
.	16cccJJ	.	.
.	16ffnKL	.	.
.	8ff-X	.	.
.	16ee-XJk	.	.
=3	=3	=3	=3
4.c-X 4.fn	[4.ee-X	16b-XLL	.
.	.	16anJJ	.
.	.	8.b-	.
.	.	16a	.
=4	=4	=4	=4
4.G 4.f	8ee-L]	4.a	.
.	8een	.	.
.	8ee-XJ	.	.
=5	=5	=5	=5
4.B-X 4.en	[4.dd	16aLL	.
.	.	16g#XJJ	.
.	.	8.a	.
.	.	16a-X	.
=6	=6	=6	=6
*^	*	*	*
4.e-X	4An	16ddLL]	4g	.
.	.	16aanJJ	.	.
.	.	16ddKL	.	.
.	.	8dd-X	.	.
.	8A-X	.	8a-X	.
.	.	[16ccJk	.	.
=7	=7	=7	=7	=7
4.c	4.D	16ccLL]	4.f#X	.
.	.	16bJJ	.	.
.	.	16ff#XKL	.	.
.	.	8b-X	.	.
.	.	16aJk	.	.
*v	*v	*	*	*
=8	=8	=8	=8
4GG 4F 4B	16aLL	4fn	.
.	16g#XJJ	.	.
.	8ee	.	.
8r	8raa	[8ee	.
*clefG2	*	*	*
=9	=9	=9	=9
4.f 4.b	[4.aa	16eeLL]	.
.	.	16dd#XJJ	.
.	.	8.ee	.
.	.	16ee-X	.
=10	=10	=10	=10
4.d-X 4.cc-X	16aaLL]	4.ee-X	.
.	16fffJJ	.	.
.	16bb-XKL	.	.
.	8bb--	.	.
.	16aa-XJk	.	.
=11	=11	=11	=11
4.f-X 4.b-X	[4.aa-X	16ee-XLL	.
.	.	16ddnJJ	.
.	.	8.ee-	.
.	.	16dd	.
=12	=12	=12	=12
4.c 4.b-X	8aa-L]	4.dd	.
.	8aan	.	.
.	8aa-XJ	.	.
=13	=13	=13	=13
4.e-X 4.a	[4.gg	16ddLL	.
.	.	16cc#XJJ	.
.	.	8.dd	.
.	.	16dd-X	.
=14	=14	=14	=14
*^	*	*	*
4.a-X	4d	16ggLL]	4cc	.
.	.	16dddnJJ	.	.
.	.	16ggKL	.	.
.	.	8gg-X	.	.
.	8d-X	.	8dd-X	.
.	.	[16ffJk	.	.
*v	*v	*	*	*
*clefF4	*	*	*
=15	=15	=15	=15
4.Gn 4.f	16ffLL]	4.b	.
.	16eeJJ	.	.
.	16bbKL	.	.
.	8ee-X	.	.
.	16ddnJk	.	.
=16	=16	=16	=16
4C 4G 4en	8.ddL	8.b	.
.	8cc	16cc	.
8r	.	8rc	.
.	16bJk	.	.
*	*v	*v	*
*clefG2	*	*
=17	=17	=17
*^	*	*
4raa	16rc	8.b	.
.	[16c	.	.
.	4c_ [4f#X	.	.
.	.	16a#X	.
16raa	.	[8ee	.
16a#X	.	.	.
=18	=18	=18	=18
8bL	4.c] 4.f	8.ee]	.
8a#XJ	.	.	.
.	.	16dd#X	.
8raa	.	16eeLL	.
.	.	16ff#XJJ	.
*v	*v	*	*
=19	=19	=19
16BLL	16ggLL	.
[16anJJ	16gg#XJJ	.
4a] 4ee	[4bb#X	.
=20	=20	=20
8dd#XL	16bb#LL]	.
.	16ccc#X	.
8a	16gg#X	.
.	16ff##X	.
8BnJ	16dd#X	.
.	16aJJ	.
=21	=21	=21
*^	*	*
4raa	16rc	8.a-X	.
.	[16B--	.	.
.	4B--_ [4e-X	.	.
.	.	16g	.
16raa	.	[8dd-X	.
16g	.	.	.
=22	=22	=22	=22
8a-XL	4.B--] 4.e-]	8.dd-]	.
8gJ	.	.	.
.	.	16cc	.
8raa	.	16dd-XLL	.
.	.	16ee-XJJ	.
*v	*v	*	*
=23	=23	=23
16A-XLL	16eenLL	.
[16g-XJJ	16ffJJ	.
4g-] 4dd-X	[4aan	.
=24	=24	=24
8ccL	16aaLL]	.
.	16bb-X	.
8g-X	16ff	.
.	16ee	.
8A-XJ	16cc	.
.	16g-XJJ	.
=25	=25	=25
*^	*	*
4raa	16rc	8.gn	.
.	[16A-X	.	.
.	4A-_ [4d	.	.
.	.	16f#X	.
16raa	.	[8cc	.
16f#X	.	.	.
=26	=26	=26	=26
8gL	4.A-] 4.d]	8.cc]	.
8f#XJ	.	.	.
.	.	16b	.
8raa	.	16ccLL	.
.	.	16ddJJ	.
=27	=27	=27	=27
8raa	8rc	16dd#XLL	.
.	.	16eeJJ	.
8GnL	[4G	[4gg#X	.
[8f#XJ	.	.	.
=28	=28	=28	=28
4.f#] 4.cc	4.G]	16gg#LL]	.
.	.	16aaJJ	.
.	.	4eee	.
*v	*v	*	*
=29	=29	=29
4.G 4.f#X 4.cc	16r	.
.	16ee	.
.	16gg#XLL	.
.	16aaJJ	.
.	8eee	.
=30	=30	=30
4.G 4.fn 4.cc	16r	.
.	16dd#X	.
.	16gg#XLL	.
.	16aaJJ	.
.	8ddd#X	.
*clefF4	*	*
=31	=31	=31
4.C 4.G 4.f [4.cc	16r	.
.	16dd#X	.
.	16gg#XLL	.
.	16aaJJ	.
.	[8ddd#X	.
=32	=32	=32
4e 4cc]	16ddd#LL]	.
.	16eee	.
.	16aa-X	.
.	16gg	.
8r	16ee	.
.	16ccJJ	.
=33	=33	=33
16r	8.an	.
[16c	.	.
4c] 4e 4b-X	.	.
.	16g#X	.
.	[8cc	.
=34	=34	=34
8FL	16ccLL]	.
.	16cc-XJJ	.
8e-X	8.ee-X	.
8aJ	.	.
.	16gn	.
=35	=35	=35
16r	8.g	.
[16B-X	.	.
4B-] 4d 4a-X	.	.
.	16f#X	.
.	[8b-X	.
=36	=36	=36
8E-XL	16b-LL]	.
.	16b--JJ	.
8d-X	8.dd-X	.
8gJ	.	.
.	16fn	.
=37	=37	=37
16r	8.f	.
[16A-X	.	.
4A-] 4c 4g-X	.	.
.	16en	.
.	[8a-X	.
=38	=38	=38
8D-XL	16a-LL]	.
.	16gnJJ	.
8c-X	8.cc-X	.
8fJ	.	.
.	16e-X	.
=39	=39	=39
8GGL	16r	.
.	16en	.
8F	8.an	.
8BJ	.	.
.	[16d#X	.
=40	=40	=40
32%3CCL	16d#LL]	.
.	16eJJ	.
32%3GG	.	.
.	8.a	.
32%3F	.	.
32%3BJ	.	.
.	16a	.
*clefG2	*	*
=41	=41	=41
*^	*	*
4.e	8eL	8.a	.
.	8b-X	.	.
.	.	16g#X	.
.	8cJ	[8cc	.
=42	=42	=42	=42
4.e-X	8e-L	16ccLL]	.
.	.	16cc-XJJ	.
.	8a	8.ee-X	.
*clefF4	*	*	*
.	8FJ	.	.
.	.	16gnX	.
=43	=43	=43	=43
4.d	8dL	8.g	.
.	8a-X	.	.
.	.	16f#X	.
.	8B-XJ	[8b-X	.
=44	=44	=44	=44
4.d-X	8d-L	16b-LL]	.
.	.	16b--JJ	.
.	8g	8.dd-X	.
.	8E-XJ	.	.
.	.	16fn	.
=45	=45	=45	=45
4.c	8cL	8.f	.
.	8g-X	.	.
.	.	16en	.
.	8A-XJ	[8a-X	.
=46	=46	=46	=46
4.c-X	8c-L	16a-LL]	.
.	.	16gJJ	.
.	8f	8.cc-X	.
.	8D-XJ	.	.
.	.	16e-X	.
=47	=47	=47	=47
4.B-X	8B-L	16e-XLL	.
.	.	16enJJ	.
.	8f	8.an	.
.	8FJ	.	.
.	.	[16d#X	.
*v	*v	*	*
=48	=48	=48
32%3GGL	16d#LL]	.
.	16eJJ	.
32%3F	.	.
.	8f	.
32%3Bn	.	.
.	8r	.
32%3fJ	.	.
*clefG2	*	*
=49	=49	=49
*	*^	*
4.f 4.b	[4.aa	16eeLL	.
.	.	16dd#XJJ	.
.	.	8.ee	.
.	.	16ee-X	.
=50	=50	=50	=50
4.d-X 4.cc-X	16aaLL]	4.ee-X	.
.	16fffJJ	.	.
.	16bb-XKL	.	.
.	8bb--	.	.
.	16aa-XJk	.	.
=51	=51	=51	=51
4.f-X 4.b-X	[4.aa-X	16ee-XLL	.
.	.	16ddnJJ	.
.	.	8.ee-	.
.	.	16dd	.
=52	=52	=52	=52
4.c 4.b-X	8aa-L]	[4.dd	.
.	8aan	.	.
.	8aa-XJ	.	.
=53	=53	=53	=53
4.e-X 4.an	[4.gg	16ddLL]	.
.	.	16cc#XJJ	.
.	.	8.dd	.
.	.	16dd-X	.
=54	=54	=54	=54
*^	*	*	*
4.a-X	4dn	16ggLL]	4cc	.
.	.	16dddnJJ	.	.
.	.	16ggKL	.	.
.	.	8gg-X	.	.
.	8d-X	.	8dd-X	.
.	.	16ffJk	.	.
*v	*v	*	*	*
*	*v	*v	*
=55	=55	=55
4.r	4.r	.
*clefF4	*	*
=56	=56	=56
*^	*^	*
[4.A-X	4Dn	16gnLL	4c	.
.	.	16ddnJJ	.	.
.	.	16gKL	.	.
.	.	8g-X	.	.
.	[8D-X	.	[8d-X	.
.	.	[16fJk	.	.
=57	=57	=57	=57	=57
4A-]	4D-]	4f]	4d-]	.
8rc	8rEE	8raa	8rc	.
*v	*v	*	*	*
=58	=58	=58	=58
16r	16raa	16rc	.
[16GGn [16F	16e	[16B	.
4GG] 4F]	16bKL	4B]	.
.	8e	.	.
.	16d#XJk	.	.
*	*v	*v	*
=59	=59	=59
4.CC 4.GG 4.E	4.G 4.c 4.e 4.g	.
==	==	==
*-	*-	*-
!!!system-decoration: {(*)}
!!!ENC: Bryan Jacob Bell
!!!END: November 2021 to April 2022
!!!PED: Günter Philipp
!!!PTL: Ausgewählte Klavierwerke (Edition Peters)
